src/Assets/Icons/RegistrationScreen/RegistrationForm/googleIcon.svg

<svg width="24" height="24" viewBox="0 0 24 24" fill="none" xmlns="http://www.w3.org/2000/svg">
<path d="M22.501 12.2332C22.501 11.3699 22.4296 10.7399 22.2748 10.0865H12.2153V13.9832H18.12C18.001 14.9515 17.3582 16.4099 15.9296 17.3898L15.9096 17.5203L19.0902 19.935L19.3106 19.9565C21.3343 18.1249 22.501 15.4298 22.501 12.2332Z" fill="#4285F4"/>
<path d="M12.214 22.5C15.1068 22.5 17.5353 21.5666 19.3092 19.9567L15.9282 17.3899C15.0235 18.0083 13.8092 18.4399 12.214 18.4399C9.38069 18.4399 6.97596 16.6083 6.11874 14.0766L5.99309 14.0871L2.68583 16.5954L2.64258 16.7132C4.40446 20.1433 8.0235 22.5 12.214 22.5Z" fill="#34A853"/>
<path d="M6.12046 14.0767C5.89428 13.4234 5.76337 12.7233 5.76337 12C5.76337 11.2767 5.89428 10.5767 6.10856 9.92337L6.10257 9.78423L2.75386 7.2356L2.64429 7.28667C1.91814 8.71002 1.50146 10.3084 1.50146 12C1.50146 13.6917 1.91814 15.29 2.64429 16.7133L6.12046 14.0767Z" fill="#FBBC05"/>
<path d="M12.2141 5.55997C14.2259 5.55997 15.583 6.41163 16.3569 7.12335L19.3807 4.23C17.5236 2.53834 15.1069 1.5 12.2141 1.5C8.02353 1.5 4.40447 3.85665 2.64258 7.28662L6.10686 9.92332C6.97598 7.39166 9.38073 5.55997 12.2141 5.55997Z" fill="#EB4335"/>
</svg>

<svg xmlns="http://www.w3.org/2000/svg" width="24" height="24" fill="none"><path fill="#4285F4" d="M22.501 12.233c0-.863-.071-1.493-.226-2.147h-10.06v3.897h5.905c-.119.968-.762 2.427-2.19 3.407l-.02.13 3.18 2.415.22.021c2.024-1.831 3.191-4.526 3.191-7.723"/><path fill="#34A853" d="M12.214 22.5c2.893 0 5.321-.933 7.095-2.543l-3.38-2.567c-.905.618-2.12 1.05-3.715 1.05a6.44 6.44 0 0 1-6.095-4.363l-.126.01-3.307 2.508-.043.118c1.761 3.43 5.38 5.787 9.571 5.787"/><path fill="#FBBC05" d="M6.12 14.077A6.4 6.4 0 0 1 5.763 12c0-.723.131-1.423.346-2.077l-.006-.139-3.35-2.548-.109.05A10.34 10.34 0 0 0 1.501 12c0 1.692.417 3.29 1.143 4.713z"/><path fill="#EB4335" d="M12.214 5.56c2.012 0 3.369.852 4.143 1.563L19.38 4.23c-1.857-1.692-4.274-2.73-7.167-2.73-4.19 0-7.81 2.357-9.571 5.787l3.464 2.636a6.465 6.465 0 0 1 6.107-4.363"/></svg>
